icons/circle/48/cxmenu-cxoffice-0-cxdoc.svg

<svg xmlns="http://www.w3.org/2000/svg" viewBox="0 0 48 48">
 <defs>
  <linearGradient id="linearGradient3764" x1="1" x2="47" gradientUnits="userSpaceOnUse" gradientTransform="matrix(0,-1,1,0,-1.5e-6,47.999998)">
   <stop style="stop-color:#005088;stop-opacity:1"/>
   <stop offset="1" style="stop-color:#005e9d;stop-opacity:1"/>
  </linearGradient>
 </defs>
 <g>
  <path d="m 36.31 5 c 5.859 4.062 9.688 10.831 9.688 18.5 c 0 12.426 -10.07 22.5 -22.5 22.5 c -7.669 0 -14.438 -3.828 -18.5 -9.688 c 1.037 1.822 2.306 3.499 3.781 4.969 c 4.085 3.712 9.514 5.969 15.469 5.969 c 12.703 0 23 -10.298 23 -23 c 0 -5.954 -2.256 -11.384 -5.969 -15.469 c -1.469 -1.475 -3.147 -2.744 -4.969 -3.781 z m 4.969 3.781 c 3.854 4.113 6.219 9.637 6.219 15.719 c 0 12.703 -10.297 23 -23 23 c -6.081 0 -11.606 -2.364 -15.719 -6.219 c 4.16 4.144 9.883 6.719 16.219 6.719 c 12.703 0 23 -10.298 23 -23 c 0 -6.335 -2.575 -12.06 -6.719 -16.219 z" style="opacity:0.05"/>
  <path d="m 41.28 8.781 c 3.712 4.085 5.969 9.514 5.969 15.469 c 0 12.703 -10.297 23 -23 23 c -5.954 0 -11.384 -2.256 -15.469 -5.969 c 4.113 3.854 9.637 6.219 15.719 6.219 c 12.703 0 23 -10.298 23 -23 c 0 -6.081 -2.364 -11.606 -6.219 -15.719 z" style="opacity:0.1"/>
  <path d="m 31.25 2.375 c 8.615 3.154 14.75 11.417 14.75 21.13 c 0 12.426 -10.07 22.5 -22.5 22.5 c -9.708 0 -17.971 -6.135 -21.12 -14.75 a 23 23 0 0 0 44.875 -7 a 23 23 0 0 0 -16 -21.875 z" style="opacity:0.2"/>
 </g>
 <g>
  <path d="m 24 1 c 12.703 0 23 10.297 23 23 c 0 12.703 -10.297 23 -23 23 -12.703 0 -23 -10.297 -23 -23 0 -12.703 10.297 -23 23 -23 z" style="fill:url(#linearGradient3764);fill-opacity:1"/>
 </g>
 <g>
  <g>
   <g transform="translate(1,1)">
    <g style="opacity:0.1">
     <!-- color: #005e9d -->
     <g>
      <path d="m 19 12.984 c -6 0 -6 5.453 -6 5.453 l 0 10.91 c 0 0 0 0.015 0 0.016 c 0 0 0 7.637 6 7.637 l 12 0 c 6 0 6 -7.637 6 -7.637 c 0 0 0 -0.016 0 -0.016 l 0 -10.91 c 0 -5.453 -6 -5.453 -6 -5.453 l -12 0 z" transform="translate(-1,-1)" style="fill:#000;fill-opacity:1;stroke:none;fill-rule:nonzero"/>
     </g>
    </g>
   </g>
  </g>
 </g>
 <g>
  <g>
   <!-- color: #005e9d -->
   <g>
    <path d="m 12 28.348 c 0 0 0 5.653 6 5.653 l 12 0 c 6 0 6 -5.653 6 -5.653 l 0 -10.91 c 0 -5.453 -6 -5.453 -6 -5.453 l -12 0 c -6 0 -6 5.453 -6 5.453" style="fill:#f9f9f9;fill-opacity:1;stroke:none;fill-rule:nonzero"/>
    <path d="m 30 36 c 6 0 6 -7.637 6 -7.637 0 0 0 5.453 -6 5.453 l -12 0 c -6 0 -6 -5.453 -6 -5.453 0 0 0 7.637 6 7.637 m 12 0" style="fill:#dcdcdc;fill-opacity:1;stroke:none;fill-rule:nonzero"/>
    <path d="M 24.902,14 C 36.242,27.332 33.105,32.582 15.5,29.75 27.32,29.348 30.453,24.098 24.902,14 m 0,0" style="fill:#ffb911;fill-opacity:1;stroke:none;fill-rule:nonzero"/>
    <path d="m 24.12,17.5 c -8.367,0.137 -9.879,4.09 -4.582,11.859 0.5,-0.086 0.977,-0.176 1.43,-0.285 C 18.945,22.187 22.788,18.566 32.503,18.238 29.202,17.707 26.405,17.461 24.12,17.5 m -3.895,12.844 c 0.828,1.145 1.777,2.363 2.879,3.656 -0.695,-1.262 -1.262,-2.449 -1.691,-3.563 -0.383,-0.02 -0.781,-0.059 -1.188,-0.094 m 0,0" style="fill:#0ad;fill-opacity:1;stroke:none;fill-rule:nonzero"/>
   </g>
  </g>
 </g>
 <g>
  <path d="m 40.03 7.531 c 3.712 4.084 5.969 9.514 5.969 15.469 0 12.703 -10.297 23 -23 23 c -5.954 0 -11.384 -2.256 -15.469 -5.969 4.178 4.291 10.01 6.969 16.469 6.969 c 12.703 0 23 -10.298 23 -23 0 -6.462 -2.677 -12.291 -6.969 -16.469 z" style="opacity:0.1"/>
 </g>
</svg>

<svg xmlns="http://www.w3.org/2000/svg" viewBox="0 0 48 48">
  <defs>
    <linearGradient id="a" x1="1" x2="47" gradientUnits="userSpaceOnUse" gradientTransform="rotate(-90 24 24)">
      <stop stop-color="#005088"/>
      <stop offset="1" stop-color="#005e9d"/>
    </linearGradient>
  </defs>
  <path d="M36.31 5c5.859 4.062 9.688 10.831 9.688 18.5 0 12.426-10.07 22.5-22.5 22.5-7.669 0-14.438-3.828-18.5-9.688a23.24 23.24 0 0 0 3.781 4.969 22.923 22.923 0 0 0 15.469 5.969c12.703 0 23-10.298 23-23a22.92 22.92 0 0 0-5.969-15.469A23.216 23.216 0 0 0 36.31 5zm4.969 3.781A22.911 22.911 0 0 1 47.498 24.5c0 12.703-10.297 23-23 23a22.909 22.909 0 0 1-15.719-6.219C12.939 45.425 18.662 48 24.998 48c12.703 0 23-10.298 23-23 0-6.335-2.575-12.06-6.719-16.219z" opacity=".05"/>
  <path d="M41.28 8.781a22.923 22.923 0 0 1 5.969 15.469c0 12.703-10.297 23-23 23A22.92 22.92 0 0 1 8.78 41.281 22.911 22.911 0 0 0 24.499 47.5c12.703 0 23-10.298 23-23A22.909 22.909 0 0 0 41.28 8.781z" opacity=".1"/>
  <path d="M31.25 2.375C39.865 5.529 46 13.792 46 23.505c0 12.426-10.07 22.5-22.5 22.5-9.708 0-17.971-6.135-21.12-14.75a23 23 0 0 0 44.875-7 23 23 0 0 0-16-21.875z" opacity=".2"/>
  <path d="M24 1c12.703 0 23 10.297 23 23S36.703 47 24 47 1 36.703 1 24 11.297 1 24 1z" fill="url(#a)"/>
  <path d="M19 12.984c-6 0-6 5.453-6 5.453v10.926S13 37 19 37h12c6 0 6-7.637 6-7.637V18.437c0-5.453-6-5.453-6-5.453H19z" opacity=".1"/>
  <g>
    <path d="M12 28.348s0 5.653 6 5.653h12c6 0 6-5.653 6-5.653v-10.91c0-5.453-6-5.453-6-5.453H18c-6 0-6 5.453-6 5.453" fill="#f9f9f9"/>
    <path d="M30 36c6 0 6-7.637 6-7.637s0 5.453-6 5.453H18c-6 0-6-5.453-6-5.453S12 36 18 36m12 0" fill="#dcdcdc"/>
    <path d="M24.902 14c11.34 13.332 8.203 18.582-9.402 15.75 11.82-.402 14.953-5.652 9.402-15.75m0 0" fill="#ffb911"/>
    <path d="M24.12 17.5c-8.367.137-9.879 4.09-4.582 11.859.5-.086.977-.176 1.43-.285-2.023-6.887 1.82-10.508 11.535-10.836-3.301-.531-6.098-.777-8.383-.738m-3.895 12.844A58.251 58.251 0 0 0 23.104 34c-.695-1.262-1.262-2.449-1.691-3.563-.383-.02-.781-.059-1.188-.094m0 0" fill="#0ad"/>
  </g>
  <g>
    <path d="M40.03 7.531A22.922 22.922 0 0 1 45.999 23c0 12.703-10.297 23-23 23A22.92 22.92 0 0 1 7.53 40.031C11.708 44.322 17.54 47 23.999 47c12.703 0 23-10.298 23-23 0-6.462-2.677-12.291-6.969-16.469z" opacity=".1"/>
  </g>
</svg>
